dist/assets/img/rhombus.svg

<svg width="101" height="101" viewBox="0 0 101 101" fill="none" xmlns="http://www.w3.org/2000/svg">
<path d="M50.6773 100.72C50.5202 100.72 50.3744 100.652 50.2734 100.518L15.8211 56.291C15.6865 56.1226 15.6752 55.887 15.7875 55.7074L50.2397 1.35818C50.3519 1.17862 50.5539 1.08887 50.7559 1.13376C50.9579 1.16742 51.1262 1.32454 51.1711 1.52654L64.2001 61.8123C64.2226 61.9021 64.2113 61.9919 64.1889 62.0816L51.1599 100.372C51.1038 100.551 50.9467 100.675 50.7559 100.709C50.7335 100.72 50.711 100.72 50.6773 100.72ZM16.8536 55.9543L50.4978 99.1486L63.1789 61.8908L50.4417 2.96298L16.8536 55.9543Z" fill="#8A8A8A"/>
<path d="M50.6773 100.72C50.5763 100.72 50.4865 100.697 50.3968 100.641C50.1611 100.484 50.0938 100.17 50.2509 99.9342L83.8614 48.7496L50.2621 1.94175C50.0938 1.7173 50.1499 1.39184 50.3743 1.22351C50.5988 1.05518 50.9242 1.1113 51.0926 1.33574L84.8939 48.4242C85.0173 48.5925 85.0173 48.8282 84.9051 49.0078L51.1038 100.495C51.0028 100.641 50.8457 100.72 50.6773 100.72Z" fill="#8A8A8A"/>
<path d="M63.7063 62.4407C63.6839 62.4407 63.6614 62.4407 63.639 62.4407L16.1578 56.5042C15.8772 56.4705 15.6752 56.2124 15.7201 55.9318C15.7538 55.6513 16.0119 55.4381 16.2924 55.4942L63.5941 61.4083L84.2093 48.3119C84.445 48.1548 84.7592 48.2334 84.9163 48.4691C85.0622 48.7047 84.9949 49.019 84.7592 49.1761L63.9869 62.3734C63.8971 62.407 63.8073 62.4407 63.7063 62.4407Z" fill="#8A8A8A"/>
<path d="M16.2251 56.2349C16.1353 56.2349 16.0568 56.19 16.0119 56.1114C15.9333 55.988 15.967 55.8309 16.0905 55.7635L37.6932 42.2408L50.4417 1.56021C50.4866 1.42554 50.6212 1.34696 50.7671 1.39185C50.9018 1.43674 50.9803 1.58264 50.9354 1.7173L38.1646 42.4877C38.1421 42.5438 38.1084 42.5999 38.0523 42.6223L16.371 56.2012C16.3149 56.2236 16.27 56.2349 16.2251 56.2349Z" fill="#8A8A8A"/>
<path d="M50.6773 100.473C50.5651 100.473 50.4529 100.394 50.4304 100.271L37.6596 42.4652C37.6371 42.3866 37.6596 42.2969 37.7269 42.2407C37.783 42.1846 37.8728 42.151 37.9513 42.1622L84.5348 48.4803C84.6807 48.5027 84.7705 48.6262 84.7592 48.7721C84.748 48.9179 84.6021 48.9965 84.4674 48.9965L38.2543 42.7233L50.9467 100.17C50.9803 100.305 50.8906 100.439 50.7559 100.473C50.711 100.462 50.6998 100.473 50.6773 100.473Z" fill="#8A8A8A"/>
</svg>

<svg width="101" height="101" fill="none" xmlns="http://www.w3.org/2000/svg"><path d="M50.677 100.72a.496.496 0 01-.404-.202L15.821 56.291a.507.507 0 01-.034-.584L50.24 1.358a.482.482 0 01.516-.224c.202.033.37.19.415.393l13.03 60.285c.022.09.01.18-.012.27l-13.03 38.29a.504.504 0 01-.403.337c-.023.011-.045.011-.079.011zM16.854 55.954L50.498 99.15l12.68-37.258L50.443 2.963 16.854 55.954z" fill="#8A8A8A"/><path d="M50.677 100.72a.508.508 0 01-.28-.079.508.508 0 01-.146-.707L83.86 48.75 50.262 1.942a.518.518 0 01.112-.718.518.518 0 01.719.112l33.8 47.088a.526.526 0 01.012.584l-33.801 51.487a.513.513 0 01-.427.225z" fill="#8A8A8A"/><path d="M63.706 62.44h-.067l-47.481-5.936a.5.5 0 01-.438-.572c.034-.28.292-.494.572-.438l47.302 5.914L84.21 48.312a.512.512 0 01.707.157.522.522 0 01-.157.707L63.987 62.373a.788.788 0 01-.28.068z" fill="#8A8A8A"/><path d="M16.225 56.235a.24.24 0 01-.213-.124c-.079-.123-.045-.28.078-.347L37.694 42.24 50.442 1.56a.256.256 0 01.325-.17.26.26 0 01.168.326l-12.77 40.77c-.023.057-.057.113-.113.135l-21.681 13.58a.388.388 0 01-.146.033z" fill="#8A8A8A"/><path d="M50.677 100.473a.252.252 0 01-.247-.202L37.66 42.465a.215.215 0 01.067-.224.279.279 0 01.224-.079l46.584 6.318a.263.263 0 01.224.292c-.011.146-.157.224-.292.224l-46.213-6.273 12.693 57.447a.255.255 0 01-.191.303c-.045-.011-.056 0-.079 0z" fill="#8A8A8A"/></svg>
